icons/linear-new-office-doc-order-check.svg

<svg xmlns="http://www.w3.org/2000/svg" width="32px" height="32px" viewBox="0 0 32 32" version="1.1">
    <title>linear-new-office-doc-order-check</title>
    <g id="linear-new-office-doc-order-check" stroke-width="1" fill-rule="evenodd">
        <path d="M8,4 L8,6 L6,6 L6,28 L26,28 L26,6 L24,6 L24,4 L27,4 C27.5522847,4 28,4.44771525 28,5 L28,29 C28,29.5522847 27.5522847,30 27,30 L5,30 C4.44771525,30 4,29.5522847 4,29 L4,5 C4,4.44771525 4.44771525,4 5,4 L8,4 Z M22.2071068,13.7928932 C22.5976311,14.1834175 22.5976311,14.8165825 22.2071068,15.2071068 L15.2071068,22.2071068 C14.8165825,22.5976311 14.1834175,22.5976311 13.7928932,22.2071068 L9.79289322,18.2071068 C9.40236893,17.8165825 9.40236893,17.1834175 9.79289322,16.7928932 C10.1834175,16.4023689 10.8165825,16.4023689 11.2071068,16.7928932 L14.5,20.085 L20.7928932,13.7928932 C21.1834175,13.4023689 21.8165825,13.4023689 22.2071068,13.7928932 Z M21,2 C21.5522847,2 22,2.44771525 22,3 L22,7 C22,7.55228475 21.5522847,8 21,8 L11,8 C10.4477153,8 10,7.55228475 10,7 L10,3 C10,2.44771525 10.4477153,2 11,2 L21,2 Z M20,4 L12,4 L12,6 L20,6 L20,4 Z" id="&#24418;&#29366;" fill-rule="nonzero" />
    </g>
</svg>

<svg xmlns="http://www.w3.org/2000/svg" viewBox="0 0 32 32"><path fill="currentColor" d="M8 4v2H6v22h20V6h-2V4h3a1 1 0 0 1 1 1v24a1 1 0 0 1-1 1H5a1 1 0 0 1-1-1V5a1 1 0 0 1 1-1zm14.207 9.793a1 1 0 0 1 0 1.414l-7 7a1 1 0 0 1-1.414 0l-4-4a1 1 0 0 1 1.414-1.414l3.293 3.292 6.293-6.292a1 1 0 0 1 1.414 0M21 2a1 1 0 0 1 1 1v4a1 1 0 0 1-1 1H11a1 1 0 0 1-1-1V3a1 1 0 0 1 1-1zm-1 2h-8v2h8z"/></svg>
